dist/assets/images/product-icons/bending.svg

<svg width="104" height="103" viewBox="0 0 104 103" fill="none" xmlns="http://www.w3.org/2000/svg">
<path opacity="0.6" fill-rule="evenodd" clip-rule="evenodd" d="M21.423 0.293634C14.1724 1.63262 8.42292 6.96197 6.44703 14.175C5.81014 16.4997 5.81583 21.1545 6.45841 23.5603C7.37484 26.9909 9.64327 30.7111 12.1287 32.8589C13.4181 33.9732 15.4545 35.339 16.4272 35.7418C16.7726 35.8848 17.0517 36.0595 17.0473 36.1296C17.043 36.1999 16.5658 36.486 15.9868 36.7653C12.6609 38.37 9.36515 41.7987 7.67327 45.414L7.06218 46.7199H4.22715C2.08935 46.7199 1.24544 46.7956 0.795657 47.0283C-0.265219 47.577 -0.265219 49.1132 0.795657 49.6619C1.30923 49.9275 3.07912 49.9707 13.5406 49.9736L25.6893 49.977L26.4978 50.4349C28.645 51.651 28.7884 54.8554 26.7605 56.3018L26.0956 56.776L13.5331 56.8776L0.970371 56.9792L0.480361 57.5492C-0.145561 58.2771 -0.142717 58.9979 0.488893 59.6293C0.973825 60.1144 1.07093 60.128 4.02481 60.128H7.06218L7.67327 61.4339C9.39928 65.122 12.675 68.485 16.3441 70.3355C17.8087 71.0742 20.3581 71.837 22.3218 72.1241C26.7428 72.7705 31.8325 71.4894 35.6419 68.771C36.8829 67.8855 40.2149 64.5385 40.2149 64.1777C40.2149 64.0733 40.3063 63.988 40.418 63.988C40.5468 63.988 40.6212 65.486 40.6212 68.0758C40.6212 70.7205 40.7323 72.9123 40.9361 74.2844C41.7121 79.5108 43.9227 84.8214 47.1534 89.2209C48.8083 91.4747 52.4745 95.0592 54.8459 96.7425C56.9122 98.2093 60.7535 100.209 63.078 101.028C65.3549 101.83 68.9492 102.555 71.7842 102.783C75.5673 103.087 102.476 103.065 103.054 102.757C103.98 102.264 103.992 102.174 103.999 95.9614C104.005 90.2879 103.989 90.0248 103.586 89.5135L103.167 88.9804L94.7157 88.9274L86.2645 88.8744L87.3644 88.1432C91.1735 85.6109 94.5307 81.4757 96.0338 77.4642L96.5905 75.9785L99.5972 75.9763C103.333 75.9735 104.02 75.7092 103.999 74.2814C103.991 73.7512 103.654 73.2796 103.054 72.9599C102.729 72.7866 98.7504 72.7236 88.1353 72.7236C73.8003 72.7236 73.652 72.7195 72.7705 72.2927C71.4177 71.6377 70.7897 70.5509 70.7897 68.8637C70.7897 67.1765 71.4177 66.0896 72.7705 65.4346C73.5612 65.0519 74.0154 65.0037 76.8356 65.0037C79.8413 65.0037 80.038 64.9794 80.5223 64.5466C81.3607 63.7974 81.4046 63.0933 80.659 62.3479L80.0246 61.7133L76.5244 61.7868C73.2 61.8565 72.9633 61.8886 71.8055 62.4265C66.1682 65.0456 66.1682 72.672 71.8055 75.3035L73.0245 75.8725L83.1314 75.9322C88.6904 75.9649 93.2384 76.0419 93.2384 76.1031C93.2384 76.1642 92.8093 77.0449 92.285 78.0601C88.5416 85.3078 81.1992 89.3357 72.8081 88.7446C65.1847 88.2076 58.1996 82.756 55.6644 75.3646C53.9967 70.5025 54.3709 64.5316 56.6258 60.0265C59.1489 54.985 63.8321 51.1301 69.389 49.5208C70.8046 49.1108 71.4224 49.0574 74.6497 49.0673C78.0292 49.0777 78.4418 49.1201 80.0918 49.6274C85.5274 51.2981 89.7644 54.7871 92.285 59.6673C92.8093 60.6824 93.2384 61.5672 93.2384 61.6332C93.2384 61.6992 91.5514 61.7533 89.4896 61.7533C87.136 61.7533 85.5532 61.8386 85.2371 61.9828C84.1088 62.4968 84.1088 64.2602 85.2371 64.7742C85.5855 64.933 88.3385 65.0037 94.1723 65.0037C101.314 65.0037 102.695 64.9566 103.2 64.6954C104.261 64.1466 104.261 62.6104 103.2 62.0617C102.746 61.827 101.885 61.7527 99.5972 61.751L96.5905 61.7488L96.0338 60.2631C95.7277 59.4461 95.0233 58.0226 94.4689 57.1C90.7252 50.8709 84.7737 46.9494 77.4939 45.9144C71.9512 45.1263 65.3413 46.8787 60.7232 50.3608C59.0234 51.6423 56.6059 54.1752 55.5041 55.8285L54.6464 57.1157L54.592 41.7814C54.5394 27.0285 54.5227 26.4306 54.1503 26.0195C53.5697 25.3779 52.3548 25.4338 51.8096 26.1271C51.3896 26.661 51.3884 26.7201 51.3884 48.0757C51.3884 70.6707 51.4355 72.0311 52.3242 75.1363C52.9647 77.3744 54.7358 80.977 56.0368 82.6885C57.3161 84.3712 59.8811 86.8294 61.5171 87.9405C64.3702 89.878 68.3626 91.389 71.7509 91.814C72.749 91.9392 78.956 92.0233 87.1892 92.0233H100.958V95.8925V99.762L85.4677 99.6897C70.4393 99.6194 69.9209 99.6042 68.0939 99.1779C61.5791 97.6579 56.6757 94.9115 52.1925 90.2715C48.221 86.1608 45.607 81.2232 44.2475 75.263L43.7841 73.2315L43.7213 38.1366L43.6586 3.0417H47.5234H51.3884L51.3915 12.0313C51.3937 18.8396 51.4563 21.1434 51.6497 21.5253C52.1815 22.5764 53.7891 22.5827 54.3305 21.5358C54.5938 21.0267 54.6389 19.5082 54.6389 11.1646C54.6389 1.15115 54.6168 0.848245 53.844 0.254832C53.6079 0.0736182 51.9357 0.0055616 47.6067 0.000889049C41.9252 -0.00540873 41.6707 0.0110467 41.1565 0.415527L40.6212 0.836462V4.58019C40.6212 6.63916 40.5525 8.3231 40.4688 8.32229C40.3851 8.32148 40.0946 7.99521 39.8236 7.59723C38.5988 5.79911 36.0918 3.62089 33.7139 2.28861C30.2591 0.353158 25.385 -0.437924 21.423 0.293634ZM28.4319 3.58067C31.6326 4.33173 35.1709 6.64058 37.1747 9.28565C39.2172 11.9819 40.1631 14.5998 40.3542 18.0845C40.6691 23.8286 38.0293 28.9762 33.1727 32.0887L31.5808 33.1089L31.4731 25.3381C31.3713 17.9999 31.3411 17.5073 30.9297 16.4895C30.2635 14.8417 29.2337 13.7258 27.6684 12.9556C26.468 12.3649 26.1123 12.2856 24.6761 12.2879C23.3126 12.2899 22.8593 12.3819 21.9012 12.8506C20.5659 13.5039 19.2338 14.8647 18.6116 16.211C18.1914 17.1199 18.1681 17.5057 18.071 25.1335L17.9694 33.1061L16.7104 32.3455C14.0721 30.7517 12.0563 28.5705 10.6566 25.7946C7.72203 19.9754 8.79185 12.926 13.3417 8.10288C16.0264 5.2569 19.1182 3.74746 23.4546 3.16542C24.4429 3.03297 27.0102 3.24689 28.4319 3.58067ZM26.4406 15.7659C28.065 16.5876 28.7145 18.9373 27.7651 20.5573C26.531 22.6632 23.6122 22.9628 22.0792 21.1409C20.8985 19.7377 20.9458 17.8844 22.197 16.5267C23.3181 15.3102 24.9589 15.016 26.4406 15.7659ZM61.2626 23.2048C60.763 23.6531 57.2799 31.658 57.2799 32.3577C57.2799 32.5348 57.494 32.9285 57.7557 33.2327C58.3337 33.9047 59.3513 33.9823 59.9055 33.3964C60.2596 33.0218 63.7809 24.8544 63.7809 24.4072C63.7809 23.9152 63.299 23.1846 62.8348 22.9732C62.1215 22.6483 61.8359 22.6904 61.2626 23.2048ZM22.2606 25.0153C23.5752 25.5981 25.6781 25.6038 27.1622 25.0285L28.2287 24.6151V36.164V47.7129L27.2637 47.2842C26.5005 46.9454 25.7571 46.8359 23.7085 46.7609L21.1183 46.666V35.6209C21.1183 29.5462 21.1524 24.576 21.1941 24.576C21.2357 24.576 21.7156 24.7737 22.2606 25.0153ZM67.4013 32.042C63.8093 35.6215 63.5194 36.116 64.46 37.0566C64.8066 37.403 65.2036 37.5779 65.6438 37.5779C66.2283 37.5779 66.684 37.2003 69.5129 34.3711C72.4794 31.4047 72.7197 31.1091 72.7197 30.4245C72.7197 29.867 72.5877 29.5806 72.1844 29.2634C71.1343 28.4372 70.8562 28.5987 67.4013 32.042ZM40.6116 36.2066L40.6021 43.1647L40.0546 42.4536C38.2321 40.0873 35.5277 37.7463 33.46 36.7452C32.9291 36.4882 32.495 36.2217 32.495 36.153C32.495 36.0841 32.8332 35.8668 33.2465 35.6695C35.3205 34.6805 38.2963 32.186 39.7267 30.2374C40.1259 29.6935 40.4906 29.2486 40.5369 29.2486C40.5832 29.2486 40.6169 32.3796 40.6116 36.2066ZM72.6181 39.7188C70.368 40.6685 68.3964 41.6262 68.1995 41.8647C67.421 42.8079 68.1209 44.282 69.3471 44.282C70.1329 44.282 78.0247 40.917 78.4589 40.3969C79.2772 39.4163 78.6072 37.9755 77.3415 37.9938C76.9783 37.9991 74.8528 38.7753 72.6181 39.7188ZM18.071 42.9615V46.7199H14.3126C12.2455 46.7199 10.5542 46.6807 10.5542 46.6329C10.5542 46.585 10.8953 45.968 11.3122 45.2616C12.2975 43.5919 14.9767 40.9304 16.6442 39.965C17.368 39.5461 17.985 39.2032 18.0155 39.2032C18.046 39.2032 18.071 40.8944 18.071 42.9615ZM33.5108 40.4422C36.6213 42.5887 38.6557 45.3925 39.8407 49.1665C40.4623 51.1462 40.5133 55.408 39.94 57.487C38.4322 62.9553 34.0274 67.2728 28.5335 68.667C26.3376 69.2243 23.0265 69.2304 20.8875 68.681C17.9357 67.9231 15.3846 66.3978 13.247 64.1125C12.2148 63.0092 10.5542 60.6363 10.5542 60.2648C10.5542 60.2016 14.0966 60.1222 18.4265 60.0882L26.2987 60.0265L27.4462 59.4885C29.5606 58.4971 30.8901 56.7025 31.2817 54.3105C31.389 53.6553 31.4774 49.985 31.478 46.1541L31.4792 39.1889L31.9363 39.4301C32.1878 39.5627 32.8962 40.0182 33.5108 40.4422Z" fill="#231F20"/>
</svg>

<svg width="104" height="103" fill="none" xmlns="http://www.w3.org/2000/svg"><path opacity=".6" fill-rule="evenodd" clip-rule="evenodd" d="M21.423.294c-7.25 1.339-13 6.668-14.976 13.881-.637 2.325-.631 6.98.011 9.385.917 3.43 3.185 7.151 5.67 9.299 1.29 1.114 3.326 2.48 4.3 2.883.345.143.624.318.62.388-.005.07-.482.356-1.061.635-3.326 1.605-6.622 5.034-8.314 8.649l-.61 1.306H4.226c-2.138 0-2.982.076-3.431.308-1.061.549-1.061 2.085 0 2.634.513.266 2.283.309 12.745.312l12.148.003.809.458c2.147 1.216 2.29 4.42.262 5.867l-.664.474-12.563.102-12.563.101-.49.57c-.626.728-.623 1.449.009 2.08.485.485.582.499 3.536.499h3.037l.611 1.306c1.726 3.688 5.002 7.051 8.671 8.901 1.465.74 4.014 1.502 5.978 1.79 4.42.645 9.51-.636 13.32-3.354 1.24-.886 4.573-4.233 4.573-4.593 0-.105.091-.19.203-.19.129 0 .203 1.498.203 4.088 0 2.645.111 4.836.315 6.208.776 5.227 2.987 10.537 6.217 14.937 1.655 2.254 5.322 5.838 7.693 7.522 2.066 1.466 5.908 3.466 8.232 4.285 2.277.802 5.871 1.527 8.706 1.755 3.783.304 30.692.282 31.27-.026.926-.493.938-.583.945-6.796.006-5.673-.01-5.936-.413-6.448l-.419-.533-8.451-.053-8.451-.053 1.1-.73c3.809-2.533 7.166-6.668 8.669-10.68l.556-1.486 3.007-.002c3.736-.002 4.423-.267 4.402-1.695-.008-.53-.345-1.001-.945-1.321-.325-.173-4.304-.236-14.919-.236-14.335 0-14.483-.005-15.365-.431-1.352-.655-1.98-1.742-1.98-3.43 0-1.686.628-2.773 1.98-3.428.791-.383 1.245-.431 4.066-.431 3.005 0 3.202-.025 3.686-.457.839-.75.883-1.454.137-2.2l-.634-.634-3.5.074c-3.325.07-3.562.102-4.72.64-5.637 2.619-5.637 10.245 0 12.877l1.22.569 10.106.06c5.56.032 10.107.109 10.107.17 0 .061-.429.942-.953 1.957-3.743 7.248-11.086 11.276-19.477 10.685-7.623-.537-14.608-5.989-17.144-13.38-1.667-4.862-1.293-10.833.962-15.338 2.523-5.042 7.206-8.897 12.763-10.506 1.416-.41 2.033-.464 5.26-.454 3.38.01 3.793.053 5.443.56 5.435 1.671 9.672 5.16 12.193 10.04.524 1.015.953 1.9.953 1.966 0 .066-1.687.12-3.748.12-2.354 0-3.937.086-4.253.23-1.128.514-1.128 2.277 0 2.791.349.159 3.102.23 8.935.23 7.142 0 8.523-.047 9.028-.309 1.061-.548 1.061-2.085 0-2.633-.454-.235-1.315-.31-3.603-.311l-3.006-.002-.557-1.486c-.306-.817-1.01-2.24-1.565-3.163-3.744-6.23-9.695-10.15-16.975-11.186-5.543-.788-12.153.965-16.77 4.447-1.7 1.281-4.118 3.814-5.22 5.468l-.858 1.287-.054-15.335c-.053-14.752-.07-15.35-.442-15.761-.58-.642-1.795-.586-2.34.107-.42.534-.422.593-.422 21.949 0 22.595.047 23.955.936 27.06.64 2.238 2.412 5.841 3.713 7.553 1.28 1.682 3.844 4.14 5.48 5.252 2.853 1.937 6.846 3.448 10.234 3.873.998.125 7.205.21 15.438.21h13.769v7.737l-15.49-.072c-15.029-.07-15.547-.086-17.374-.512-6.515-1.52-11.418-4.266-15.901-8.906-3.972-4.111-6.586-9.049-7.945-15.009l-.464-2.032-.063-35.094-.062-35.095h7.729l.004 8.99c.002 6.808.064 9.111.258 9.493.532 1.051 2.14 1.058 2.68.01.264-.508.309-2.027.309-10.37 0-10.014-.022-10.317-.795-10.91-.236-.181-1.908-.25-6.237-.254-5.682-.006-5.936.01-6.45.415l-.536.42V4.58c0 2.06-.069 3.743-.152 3.742-.084 0-.374-.327-.645-.725-1.225-1.798-3.732-3.976-6.11-5.308C30.259.353 25.385-.438 21.423.294zm7.009 3.287c3.2.75 6.739 3.06 8.743 5.705 2.042 2.696 2.988 5.314 3.18 8.798.314 5.745-2.326 10.892-7.182 14.005l-1.592 1.02-.108-7.77c-.102-7.34-.132-7.832-.543-8.85-.666-1.647-1.696-2.763-3.262-3.533-1.2-.591-1.556-.67-2.992-.668-1.363.002-1.817.094-2.775.563-1.335.653-2.667 2.014-3.29 3.36-.42.909-.443 1.295-.54 8.923l-.102 7.972-1.259-.76c-2.638-1.594-4.654-3.775-6.053-6.551-2.935-5.82-1.865-12.869 2.685-17.692 2.684-2.846 5.776-4.356 10.113-4.938.988-.132 3.555.082 4.977.416zM26.44 15.766c1.624.822 2.274 3.171 1.324 4.791-1.234 2.106-4.153 2.406-5.686.584-1.18-1.403-1.133-3.257.118-4.614 1.121-1.217 2.762-1.511 4.244-.761zm34.822 7.439c-.5.448-3.983 8.453-3.983 9.153 0 .177.214.57.476.875.578.672 1.595.75 2.15.163.354-.374 3.875-8.542 3.875-8.989 0-.492-.482-1.222-.946-1.434-.714-.325-1-.283-1.572.232zm-39.002 1.81c1.314.583 3.417.589 4.901.014l1.067-.414v23.098l-.965-.429c-.764-.339-1.507-.448-3.555-.523l-2.59-.095V35.621c0-6.075.033-11.045.075-11.045.042 0 .522.198 1.067.44zm45.14 7.027c-3.592 3.58-3.882 4.074-2.941 5.015.347.346.744.52 1.184.52.584 0 1.04-.377 3.869-3.206 2.966-2.966 3.207-3.262 3.207-3.947 0-.557-.132-.843-.536-1.16-1.05-.827-1.328-.665-4.783 2.778zm-26.79 4.165l-.009 6.958-.547-.711c-1.823-2.367-4.527-4.708-6.595-5.709-.53-.257-.965-.523-.965-.592 0-.069.338-.286.752-.483 2.074-.99 5.05-3.484 6.48-5.433.399-.543.764-.988.81-.988.046 0 .08 3.13.075 6.958zm32.007 3.512c-2.25.95-4.222 1.907-4.418 2.146-.779.943-.08 2.417 1.147 2.417.786 0 8.678-3.365 9.112-3.885.818-.98.148-2.422-1.118-2.403-.363.005-2.488.781-4.723 1.725zM18.071 42.96v3.759h-3.758c-2.068 0-3.759-.04-3.759-.087 0-.048.341-.665.758-1.371.986-1.67 3.665-4.332 5.332-5.297.724-.419 1.341-.762 1.372-.762.03 0 .055 1.691.055 3.758zm15.44-2.519c3.11 2.147 5.145 4.95 6.33 8.724.621 1.98.672 6.242.099 8.321-1.508 5.468-5.913 9.786-11.406 11.18-2.196.557-5.508.563-7.646.014-2.952-.758-5.503-2.283-7.641-4.569-1.032-1.103-2.693-3.476-2.693-3.847 0-.063 3.543-.143 7.873-.177l7.872-.062 1.147-.538c2.115-.99 3.444-2.785 3.836-5.178.107-.655.195-4.325.196-8.156l.001-6.965.457.241c.252.133.96.588 1.575 1.012z" fill="#231F20"/></svg>
